X:123
T: Gusu fengguang(Da jiulianhuan)
N: C0169D
O: China, Jiangsu, Suzhou
S: III, 496]
N: Hier sind viele Weisen zusammengetragen. Wird von Streich-, Matouqin)
N: und Zupfinstrumenten begleitet. Die Saengerin imitiert die
N: Zwischenspiele. Charakter der Lokaloper. Saengerin: Huang Bai
N: +++Dieses Lied wurde GETEILT!! Der 2.,3.,4. Teil folgt unter gleicher
N: Signatur. Einige Verzierungen. Vor- und Zwischenspiele weggelassen.
R: Xiaodiao, Shidiao, Jiandianhua diao, Matou diao]
M: 2/4
L: 1/32
K: D
B6A2F4E2F2 | A12B4 | d4B4a2f2e2f2 | d16
f2B2d2e2f2e2a2f2 | e2f4e2d2B2A4 | f2e2d2B2B2A2A2F2 | A16
f2f4e2d2e2f2a2 | e2e2f2e2d2e2B2A2 | F3AF2A2B2A2B2d2 | A8
A4A2F2 | a2f2f2e2d4e2d2 | B4d4F2A2B2A2 | A2F4E2D8
F3AF2A2B2A2d2B2 | A8A4A2F2
a2f2f2e2d4e2d2 | B4d4F2A2B2A2 | a6f2e4B4 | d16- | d16

